X: 8581
T: Croen Y Ddafad Felyn
R: barndance
M: 4/4
K: Gmajor
d>e fg|a2 f2|g>a g/f/g/e/|a2 e2||
fd df|e/f/e/d/ c/d/e/f/|d/e/d/c/ b/c/d/e/|c2 A2||

